static/markerPurple.svg

<svg width="30" height="36" viewBox="0 0 30 36" fill="none" xmlns="http://www.w3.org/2000/svg">
<path d="M25.2 4.31671C22.14 1.25671 18.07 -0.173289 14.06 0.0167109C10.52 0.186711 7.02 1.61671 4.32 4.32671C-1.44 10.0867 -1.44 19.4367 4.32 25.2067L14.76 35.6467L25.2 25.2067C30.96 19.4467 30.96 10.0967 25.2 4.32671V4.31671Z" fill="#540096"/>
<path d="M12.4414 5.17033C8.91594 5.97461 5.95578 8.96828 5.21202 12.4832C3.78401 19.2004 9.79358 25.2175 16.5023 23.7877C21.0243 22.8345 24.2522 18.5748 23.9845 13.9577C23.7465 9.96617 21.188 6.67462 17.3353 5.39374C16.0709 4.97671 13.7652 4.87246 12.4414 5.17033ZM16.9039 5.92992C19.8641 6.80866 22.1846 9.14701 23.0771 12.1705C23.4341 13.362 23.4341 15.5812 23.0771 16.7876C22.1846 19.8408 19.8641 22.1643 16.8147 23.0579C15.6098 23.4154 13.3934 23.4154 12.2034 23.0579C9.13907 22.1494 6.84829 19.8557 5.94091 16.7876C5.5839 15.5812 5.5839 13.3769 5.94091 12.1705C6.96729 8.70019 9.8382 6.18312 13.3934 5.63205C14.152 5.52779 16.056 5.67673 16.9039 5.92992Z" fill="white"/>
<path d="M13.7652 8.16405C12.6198 8.35767 12.129 8.56618 12.129 8.86406C12.129 9.11726 12.1885 9.14704 12.6198 9.02789C12.8727 8.96832 13.7504 8.89385 14.5536 8.87895C16.0263 8.84916 16.4874 8.71512 16.1155 8.41724C15.8924 8.23851 14.3305 8.07468 13.7652 8.16405Z" fill="white"/>
<path d="M10.4332 9.95108C10.3886 10.0851 10.3439 10.7851 10.3439 11.5298C10.3439 12.8703 10.3439 12.8852 10.8646 13.466C11.1918 13.8086 11.3703 14.1512 11.3257 14.3001C11.2959 14.4341 11.2216 15.715 11.1621 17.1299C11.0728 19.364 11.0877 19.7513 11.2959 20.064C11.6083 20.5406 12.4413 20.5704 12.8876 20.1236C13.1851 19.8257 13.2 19.7215 13.0958 17.1746C13.0512 15.7299 12.962 14.4341 12.9322 14.3001C12.8876 14.1512 13.0661 13.8086 13.3933 13.466C13.914 12.8852 13.914 12.8703 13.914 11.5298C13.914 10.0702 13.8396 9.71278 13.5421 9.71278C13.2446 9.71278 13.1702 10.0702 13.1702 11.4554C13.1702 12.6618 13.1405 12.7511 12.724 13.2426C12.486 13.5107 12.2777 13.8533 12.2777 14.0022C12.2777 14.1363 12.3521 15.3874 12.4265 16.7725C12.5157 18.1427 12.5455 19.4087 12.5008 19.5576C12.3818 19.93 11.8761 19.93 11.7571 19.5576C11.7124 19.4087 11.7422 18.1427 11.8315 16.7725C11.9058 15.3874 11.9802 14.1363 11.9802 14.0022C11.9802 13.8533 11.7868 13.5107 11.5339 13.2426C11.1174 12.7511 11.0877 12.6618 11.0877 11.4554C11.0877 10.0702 11.0133 9.71278 10.7158 9.71278C10.6117 9.71278 10.4778 9.81703 10.4332 9.95108Z" fill="white"/>
<path d="M11.4894 9.80216C11.4299 9.86174 11.3853 10.5766 11.3853 11.3809C11.3853 12.7065 11.415 12.8554 11.653 12.8107C11.8761 12.766 11.9059 12.5724 11.9059 11.2916C11.9059 9.92131 11.7869 9.50428 11.4894 9.80216Z" fill="white"/>
<path d="M12.3521 9.89178C12.3075 10.0109 12.2778 10.7109 12.3075 11.4407C12.3521 12.5727 12.3968 12.7663 12.6199 12.811C12.8579 12.8557 12.8728 12.7365 12.843 11.3365C12.8133 10.279 12.7389 9.78752 12.6199 9.74284C12.5158 9.71305 12.3968 9.78752 12.3521 9.89178Z" fill="white"/>
<path d="M15.937 10.1895C15.0445 11.0831 14.9255 13.1385 15.699 13.9576C16.0263 14.3002 16.0263 14.3598 15.9221 16.996C15.8329 19.3641 15.8478 19.7365 16.056 20.0641C16.3684 20.5556 17.1865 20.5854 17.6477 20.1237C17.96 19.8109 17.96 19.7365 17.8559 17.0556C17.7518 14.3598 17.7518 14.3002 18.079 13.9576C19.2095 12.7512 18.3617 9.71286 16.889 9.71286C16.5469 9.71286 16.2791 9.8469 15.937 10.1895ZM17.2163 10.4724C17.6328 10.6959 17.9303 11.5001 17.9303 12.3938C17.9303 13.0193 17.8559 13.2129 17.484 13.6151C17.0824 14.0172 17.0378 14.1661 17.0973 14.6874C17.1419 15.03 17.2014 16.296 17.2163 17.5322L17.2609 19.7662H16.889H16.5171L16.5618 17.5322C16.5766 16.296 16.6361 15.03 16.6808 14.6874C16.7403 14.1661 16.6956 14.0172 16.294 13.6151C15.9221 13.2129 15.8478 13.0193 15.8478 12.3938C15.8478 11.5299 16.1453 10.7108 16.5469 10.4724C16.889 10.2788 16.8444 10.2788 17.2163 10.4724Z" fill="white"/>
<path d="M18.8972 10.4577C18.8377 10.547 19.0013 10.9343 19.2393 11.3215C19.8789 12.3194 20.1615 13.3024 20.1615 14.4492C20.1615 15.745 19.864 16.6833 19.1203 17.7706C18.4955 18.694 18.436 18.8727 18.674 19.0217C18.912 19.1706 19.7153 18.2174 20.1764 17.2195C20.7417 16.0429 20.9202 14.911 20.7566 13.6897C20.5929 12.5279 20.4293 12.1109 19.8194 11.0832C19.3732 10.3385 19.0905 10.1449 18.8972 10.4577Z" fill="white"/>
<path d="M9.09446 11.2322C8.57383 12.1407 8.4102 12.6173 8.27632 13.7343C8.1127 15.0003 8.2912 16.0727 8.82671 17.2195C9.30271 18.2174 10.106 19.1706 10.344 19.0217C10.582 18.8727 10.5225 18.694 9.89772 17.7706C9.07958 16.5642 8.81183 15.5961 8.88621 14.1067C8.93083 13.1386 9.03496 12.7216 9.43659 11.9173C9.88284 11.0088 9.94234 10.6066 9.60022 10.6066C9.52584 10.6066 9.30271 10.8896 9.09446 11.2322Z" fill="white"/>
<path d="M13.5273 20.3027C13.3488 20.6006 13.7653 20.8091 14.509 20.8091C15.2528 20.8091 15.6693 20.6006 15.4908 20.3027C15.3569 20.0942 13.6611 20.0942 13.5273 20.3027Z" fill="white"/>
</svg>

<svg xmlns="http://www.w3.org/2000/svg" width="30" height="36" fill="none"><path fill="#540096" d="M25.2 4.317a14.715 14.715 0 0 0-11.14-4.3c-3.54.17-7.04 1.6-9.74 4.31-5.76 5.76-5.76 15.11 0 20.88l10.44 10.44 10.44-10.44c5.76-5.76 5.76-15.11 0-20.88v-.01Z"/><path fill="#fff" d="M12.441 5.17c-3.525.805-6.485 3.798-7.229 7.313-1.428 6.717 4.582 12.735 11.29 11.305 4.522-.954 7.75-5.213 7.483-9.83-.238-3.992-2.797-7.283-6.65-8.564-1.264-.417-3.57-.522-4.894-.224Zm4.463.76c2.96.879 5.28 3.217 6.173 6.24.357 1.192.357 3.411 0 4.618a9.149 9.149 0 0 1-6.262 6.27c-1.205.357-3.422.357-4.612 0-3.064-.909-5.355-3.202-6.262-6.27-.357-1.207-.357-3.411 0-4.617 1.026-3.47 3.897-5.988 7.452-6.539.759-.104 2.663.045 3.51.298Z"/><path fill="#fff" d="M13.765 8.164c-1.145.194-1.636.402-1.636.7 0 .253.06.283.49.164.254-.06 1.131-.134 1.935-.15 1.472-.029 1.933-.163 1.562-.46-.224-.18-1.785-.343-2.35-.254ZM10.433 9.951c-.044.134-.09.834-.09 1.579 0 1.34 0 1.355.522 1.936.327.343.505.685.46.834-.03.134-.103 1.415-.163 2.83-.09 2.234-.074 2.621.134 2.934.312.477 1.145.506 1.592.06.297-.298.312-.402.208-2.95-.045-1.444-.134-2.74-.164-2.874-.044-.149.134-.491.461-.834.521-.58.521-.596.521-1.936 0-1.46-.074-1.817-.372-1.817-.297 0-.372.357-.372 1.742 0 1.207-.03 1.296-.446 1.788-.238.268-.446.61-.446.76 0 .133.074 1.384.149 2.77.089 1.37.119 2.636.074 2.785a.387.387 0 0 1-.744 0c-.045-.15-.015-1.415.075-2.785.074-1.386.148-2.637.148-2.77 0-.15-.193-.492-.446-.76-.417-.492-.446-.581-.446-1.788 0-1.385-.075-1.742-.372-1.742-.104 0-.238.104-.283.238Z"/><path fill="#fff" d="M11.49 9.802c-.06.06-.105.775-.105 1.579 0 1.325.03 1.474.268 1.43.223-.045.253-.239.253-1.52 0-1.37-.12-1.787-.417-1.489ZM12.352 9.892c-.045.119-.074.819-.045 1.549.045 1.132.09 1.325.313 1.37.238.045.253-.075.223-1.475-.03-1.057-.104-1.548-.223-1.593-.104-.03-.223.045-.268.149ZM15.937 10.19c-.893.893-1.011 2.949-.238 3.768.327.342.327.402.223 3.038-.09 2.368-.074 2.74.134 3.068.312.492 1.13.521 1.592.06.312-.313.312-.387.208-3.068-.104-2.696-.104-2.756.223-3.098 1.13-1.207.283-4.245-1.19-4.245-.342 0-.61.134-.952.477Zm1.28.282c.416.224.713 1.028.713 1.922 0 .625-.074.819-.446 1.221-.402.402-.446.551-.387 1.072.045.343.104 1.609.12 2.845l.044 2.234h-.744l.045-2.234c.015-1.236.074-2.502.119-2.845.06-.52.015-.67-.387-1.072-.372-.402-.446-.596-.446-1.221 0-.864.297-1.683.699-1.922.342-.193.297-.193.67 0ZM18.897 10.458c-.06.089.104.476.342.864.64.997.922 1.98.922 3.127 0 1.296-.297 2.234-1.04 3.322-.625.923-.685 1.102-.447 1.25.238.15 1.041-.804 1.502-1.802.566-1.176.744-2.308.58-3.53-.163-1.161-.327-1.578-.937-2.606-.446-.745-.729-.938-.922-.625ZM9.094 11.232c-.52.909-.684 1.385-.818 2.502-.163 1.266.015 2.339.55 3.486.477.997 1.28 1.95 1.518 1.802.238-.15.179-.328-.446-1.251-.818-1.207-1.086-2.175-1.012-3.664.045-.968.149-1.385.55-2.19.447-.908.506-1.31.164-1.31-.074 0-.297.283-.506.625ZM13.527 20.303c-.178.298.238.506.982.506s1.16-.208.982-.506c-.134-.209-1.83-.209-1.964 0Z"/></svg>
